X:630
M:C|
L:1/8
K:G
|:d|g3a gfed|edef g3b|d3e dBAG|B2A2A2d2|gfga gfed|edef g2fe|
d3e dBAG|B2G2G2:|

